resources/haticons/SVG/prettier.svg

<!-- Generated by IcoMoon.io -->
<svg version="1.1" xmlns="http://www.w3.org/2000/svg" width="24" height="24" viewBox="0 0 24 24">
<title>prettier</title>
<path fill="#f7b93e" d="M8.571 23.429c0 0.315-0.256 0.571-0.571 0.571v0h-5.714c-0.316 0-0.571-0.256-0.571-0.572s0.256-0.572 0.571-0.572v0h5.714c0.316 0 0.571 0.256 0.571 0.572zM8 20.57h-1.143c-0.316 0-0.572 0.256-0.572 0.572s0.256 0.572 0.572 0.572v0h1.143c0.316 0 0.572-0.256 0.572-0.572s-0.256-0.572-0.572-0.572v0zM2.286 21.713h2.284c0.316 0 0.571-0.256 0.571-0.572s-0.256-0.572-0.572-0.572v0h-2.284c-0.316 0-0.572 0.256-0.572 0.572s0.256 0.572 0.572 0.572v0zM8 18.286h-5.714c-0.316 0-0.571 0.256-0.571 0.572s0.256 0.572 0.571 0.572v0h5.714c0.316 0 0.572-0.256 0.572-0.572s-0.256-0.572-0.572-0.572v0zM16 16h-10.286c-0.316 0-0.572 0.256-0.572 0.572s0.256 0.572 0.572 0.572v0h10.286c0.316 0 0.572-0.256 0.572-0.572s-0.256-0.572-0.572-0.572v0zM2.286 17.143h1.143c0.316 0 0.571-0.256 0.571-0.572s-0.256-0.572-0.572-0.572v0h-1.143c-0.316 0-0.572 0.256-0.572 0.572s0.256 0.572 0.572 0.572v0zM19.429 13.714h-3.429c-0.316 0-0.572 0.256-0.572 0.572s0.256 0.572 0.572 0.572v0h3.429c0.316 0 0.572-0.256 0.572-0.572s-0.256-0.572-0.572-0.572v0zM9.143 14.857h4.571c0.316 0 0.572-0.256 0.572-0.572s-0.256-0.572-0.572-0.572v0h-4.571c-0.316 0-0.572 0.256-0.572 0.572s0.256 0.572 0.572 0.572v0zM2.286 14.857h4.571c0.316 0 0.572-0.256 0.572-0.572s-0.256-0.572-0.572-0.572v0h-4.571c-0.316 0-0.571 0.256-0.571 0.572s0.256 0.572 0.571 0.572v0zM20.57 11.43h-9.14c-0.315 0-0.571 0.256-0.571 0.571s0.256 0.571 0.571 0.571h9.142c0.315-0.001 0.57-0.256 0.57-0.571s-0.256-0.571-0.571-0.571c-0 0-0.001 0-0.001 0h0zM9.714 12c0-0.315-0.256-0.571-0.571-0.571v0h-3.429c-0.315 0-0.571 0.256-0.571 0.571s0.256 0.571 0.571 0.571h3.429c0.315 0 0.571-0.256 0.571-0.571v0zM2.286 12.571h1.143c0.315 0 0.571-0.256 0.571-0.571s-0.256-0.571-0.571-0.571h-1.143c-0.315 0-0.571 0.256-0.571 0.571s0.256 0.571 0.571 0.571v0zM21.714 9.143h-5.714c-0.316 0-0.572 0.256-0.572 0.572s0.256 0.572 0.572 0.572v0h5.714c0.316 0 0.572-0.256 0.572-0.572s-0.256-0.572-0.572-0.572v0zM2.286 10.286h5.714c0.316 0 0.571-0.256 0.571-0.572s-0.256-0.572-0.571-0.572v0h-5.714c-0.316 0-0.572 0.256-0.572 0.572s0.256 0.572 0.572 0.572v0zM15.429 7.429c0 0.315 0.255 0.571 0.571 0.571h5.714c0.316 0 0.572-0.256 0.572-0.572s-0.256-0.572-0.572-0.572v0h-5.714c0 0 0 0 0 0-0.315 0-0.571 0.256-0.571 0.571 0 0 0 0.001 0 0.001v-0zM6.857 6.857c-0.316 0-0.572 0.256-0.572 0.572s0.256 0.572 0.572 0.572v0h1.143c0.316 0 0.571-0.256 0.571-0.572s-0.256-0.572-0.571-0.572v0zM2.286 8h2.284c0.316 0 0.571-0.256 0.571-0.572s-0.256-0.572-0.572-0.572v0h-2.284c-0.316 0-0.572 0.256-0.572 0.572s0.256 0.572 0.572 0.572v0zM18.857 5.143c0 0.315 0.256 0.571 0.572 0.571h1.142c0.316 0 0.572-0.256 0.572-0.572s-0.256-0.572-0.572-0.572v0h-1.141c-0.001 0-0.001 0-0.002 0-0.315 0-0.571 0.256-0.571 0.571 0 0 0 0.001 0 0.001v-0zM17.714 5.143c0-0 0-0.001 0-0.001 0-0.315-0.256-0.571-0.571-0.571 0 0 0 0 0 0h-4.573c-0.316 0-0.572 0.256-0.572 0.572s0.256 0.572 0.572 0.572v0h4.572c0 0 0.001 0 0.001 0 0.315 0 0.571-0.256 0.571-0.571 0 0 0 0 0 0v0zM2.286 5.714h8c0.316 0 0.572-0.256 0.572-0.571s-0.256-0.572-0.572-0.572v0h-8c-0.316 0-0.571 0.256-0.571 0.572s0.256 0.572 0.571 0.572v0zM7.429 2.857c0 0.316 0.255 0.572 0.571 0.572h11.429c0.316 0 0.572-0.256 0.572-0.572s-0.256-0.571-0.572-0.571v0h-11.429c-0.315 0-0.571 0.256-0.571 0.571v0zM2.286 3.429h3.428c0.316 0 0.571-0.256 0.571-0.572s-0.256-0.571-0.572-0.571v0h-3.428c-0.316 0-0.572 0.256-0.572 0.571s0.256 0.572 0.572 0.572v0zM2.286 1.143h13.714c0.316 0 0.572-0.256 0.572-0.572s-0.256-0.572-0.572-0.572v0h-13.714c-0.316 0-0.571 0.256-0.571 0.572s0.256 0.572 0.571 0.572v0z"></path>
</svg>

<svg xmlns="http://www.w3.org/2000/svg" width="24" height="24"><path fill="#f7b93e" d="M8.571 23.429A.571.571 0 0 1 8 24H2.286a.571.571 0 0 1 0-1.144H8c.316 0 .571.256.571.572zM8 20.57H6.857a.572.572 0 1 0 0 1.144H8a.572.572 0 1 0 0-1.144zm-5.714 1.143H4.57a.571.571 0 1 0-.001-1.144H2.285a.572.572 0 1 0 0 1.144zM8 18.286H2.286a.571.571 0 0 0 0 1.144H8a.572.572 0 1 0 0-1.144zM16 16H5.714a.572.572 0 1 0 0 1.144H16A.572.572 0 1 0 16 16zM2.286 17.143h1.143a.571.571 0 1 0-.001-1.144H2.285a.572.572 0 1 0 0 1.144zm17.143-3.429H16a.572.572 0 1 0 0 1.144h3.429a.572.572 0 1 0 0-1.144zM9.143 14.857h4.571a.572.572 0 1 0 0-1.144H9.143a.572.572 0 1 0 0 1.144zm-6.857 0h4.571a.572.572 0 1 0 0-1.144H2.286a.571.571 0 0 0 0 1.144zM20.57 11.43h-9.14a.571.571 0 0 0 0 1.142h9.142a.571.571 0 0 0-.001-1.142h-.001zM9.714 12a.571.571 0 0 0-.571-.571H5.714a.571.571 0 0 0 0 1.142h3.429A.571.571 0 0 0 9.714 12zm-7.428.571h1.143a.571.571 0 0 0 0-1.142H2.286a.571.571 0 0 0 0 1.142zm19.428-3.428H16a.572.572 0 1 0 0 1.144h5.714a.572.572 0 1 0 0-1.144zM2.286 10.286H8a.571.571 0 0 0 0-1.144H2.286a.572.572 0 1 0 0 1.144zm13.143-2.857A.57.57 0 0 0 16 8h5.714a.572.572 0 1 0 0-1.144H16a.571.571 0 0 0-.571.571v.001zm-8.572-.572a.572.572 0 1 0 0 1.144H8a.571.571 0 0 0 0-1.144zM2.286 8H4.57a.571.571 0 1 0-.001-1.144H2.285a.572.572 0 1 0 0 1.144zm16.571-2.857c0 .315.256.571.572.571h1.142a.572.572 0 1 0 0-1.144h-1.143a.571.571 0 0 0-.571.571v.001zm-1.143 0v-.001a.571.571 0 0 0-.571-.571H12.57a.572.572 0 1 0 0 1.144h4.573a.571.571 0 0 0 .571-.571zm-15.428.571h8a.572.572 0 1 0 0-1.143h-8a.571.571 0 0 0 0 1.144zm5.143-2.857c0 .316.255.572.571.572h11.429a.572.572 0 1 0 0-1.143H8a.571.571 0 0 0-.571.571zm-5.143.572h3.428a.571.571 0 1 0-.001-1.143H2.285a.572.572 0 1 0 0 1.143zm0-2.286H16a.572.572 0 1 0 0-1.144H2.286a.571.571 0 0 0 0 1.144z"/></svg>
